icons/file-text.svg

<svg width="24" height="24" viewBox="0 0 24 24" fill="none" xmlns="http://www.w3.org/2000/svg">
<path d="M9 7C8.44772 7 8 7.44772 8 8C8 8.55228 8.44772 9 9 9H10C10.5523 9 11 8.55228 11 8C11 7.44772 10.5523 7 10 7H9Z" fill="black"/>
<path d="M9 11C8.44772 11 8 11.4477 8 12C8 12.5523 8.44772 13 9 13H15C15.5523 13 16 12.5523 16 12C16 11.4477 15.5523 11 15 11H9Z" fill="black"/>
<path d="M9 15C8.44772 15 8 15.4477 8 16C8 16.5523 8.44772 17 9 17H15C15.5523 17 16 16.5523 16 16C16 15.4477 15.5523 15 15 15H9Z" fill="black"/>
<path fill-rule="evenodd" clip-rule="evenodd" d="M4 2C3.44772 2 3 2.44772 3 3V21C3 21.5523 3.44772 22 4 22H20C20.5523 22 21 21.5523 21 21V8C21 7.73478 20.8946 7.48043 20.7071 7.29289L15.7071 2.29289C15.5196 2.10536 15.2652 2 15 2H4ZM5 20V4H14V8C14 8.55228 14.4477 9 15 9H19V20H5Z" fill="black"/>
</svg>

<svg
  width="24"
  height="24"
  viewBox="0 0 24 24"
  xmlns="http://www.w3.org/2000/svg"
>
  <path d="M9 7a1 1 0 0 0 0 2h1a1 1 0 1 0 0-2H9z" />
  <path d="M9 11a1 1 0 1 0 0 2h6a1 1 0 1 0 0-2H9z" />
  <path d="M9 15a1 1 0 1 0 0 2h6a1 1 0 1 0 0-2H9z" />
  <path
    fill-rule="evenodd"
    clip-rule="evenodd"
    d="M4 2a1 1 0 0 0-1 1v18a1 1 0 0 0 1 1h16a1 1 0 0 0 1-1V8a1 1 0 0 0-.293-.707l-5-5A1 1 0 0 0 15 2H4zm1 18V4h9v4a1 1 0 0 0 1 1h4v11H5z"
  />
</svg>
